<?xml version="1.0" encoding="UTF-8"?>
<map version="1.11" tiledversion="1.11.0" orientation="orthogonal" renderorder="right-down" width="60" height="34" tilewidth="32" tileheight="32" infinite="0" nextlayerid="5" nextobjectid="1">
 <tileset firstgid="1" name="watergrass" tilewidth="32" tileheight="32" tilecount="18" columns="3">
  <image source="../../../Users/komvu/CLionProject/winther-engine/resources/tiles/watergrass.png" width="96" height="192"/>
 </tileset>
 <tileset firstgid="19" name="grass" tilewidth="32" tileheight="32" tilecount="18" columns="3">
  <image source="../../../Users/komvu/CLionProject/winther-engine/resources/tiles/grass.png" width="96" height="192"/>
 </tileset>
 <tileset firstgid="37" name="house" tilewidth="32" tileheight="32" tilecount="63" columns="9">
  <image source="../../../Users/komvu/CLionProject/winther-engine/resources/tiles/house.png" width="288" height="224"/>
 </tileset>
 <tileset firstgid="100" name="trunk" tilewidth="32" tileheight="32" tilecount="18" columns="6">
  <image source="../../../Users/komvu/CLionProject/winther-engine/resources/tiles/trunk.png" width="192" height="96"/>
 </tileset>
 <tileset firstgid="118" name="dirt1" tilewidth="32" tileheight="32" tilecount="18" columns="3">
  <image source="../../../Users/komvu/CLionProject/winther-engine/resources/tiles/dirt1.png" width="96" height="192"/>
 </tileset>
 <tileset firstgid="136" name="treetop" tilewidth="32" tileheight="32" tilecount="42" columns="6">
  <image source="../../../Users/komvu/CLionProject/winther-engine/resources/tiles/treetop.png" width="192" height="224"/>
 </tileset>
 <tileset firstgid="178" name="bridges" tilewidth="32" tileheight="32" tilecount="42" columns="6">
  <image source="../../../Users/komvu/CLionProject/winther-engine/resources/tiles/bridges.png" width="192" height="224"/>
 </tileset>
 <layer id="1" name="Tile Layer 1" width="60" height="34">
  <data encoding="csv">
34,35,36,34,34,36,34,34,34,35,34,34,36,36,36,36,29,35,35,35,34,35,35,34,35,34,35,36,35,36,34,35,36,36,34,35,36,36,36,36,35,36,36,36,36,34,34,35,36,36,34,34,35,36,36,36,29,35,29,36,
34,35,35,35,35,34,34,36,36,29,34,36,36,36,35,35,29,35,36,35,35,34,35,34,35,34,35,36,36,34,35,34,35,34,35,36,34,35,36,36,34,34,35,36,36,34,34,35,36,35,34,35,36,36,29,36,29,36,29,29,
34,35,29,35,36,36,35,36,0,29,34,34,0,34,35,35,29,36,35,35,35,34,35,34,35,34,35,36,36,34,34,34,35,34,35,36,34,35,36,34,34,35,36,36,35,36,34,35,36,34,35,29,36,29,29,35,29,29,29,29,
34,29,34,29,34,35,36,34,0,29,29,34,34,34,35,35,29,35,35,34,34,34,35,34,34,34,35,36,34,34,35,34,35,34,35,36,34,35,36,36,34,35,36,35,34,34,34,35,34,35,36,29,29,29,29,29,29,29,29,29,
35,29,34,29,36,34,34,34,34,29,34,34,35,35,35,35,35,34,34,35,35,35,35,35,34,34,35,34,35,36,36,34,35,34,35,36,34,35,36,36,36,35,36,34,35,34,34,35,34,35,36,35,29,29,29,29,29,29,29,29,
36,34,34,35,35,36,36,36,36,34,34,36,34,35,35,4,35,34,35,34,35,35,35,35,34,34,34,35,36,34,35,36,34,35,34,35,34,35,36,35,36,35,36,35,36,34,34,35,34,35,29,34,29,29,29,29,36,29,29,29,
34,36,34,35,34,35,35,35,35,36,36,35,35,35,35,29,36,34,34,34,34,34,35,36,35,34,34,35,36,34,35,36,34,35,34,34,35,36,34,35,36,36,34,35,36,34,34,34,35,36,29,29,29,29,29,29,29,29,29,29,
29,34,34,35,34,34,34,34,34,35,35,34,35,36,35,29,36,35,34,34,36,34,35,36,35,34,35,36,34,35,34,34,35,36,35,34,34,35,36,34,35,36,34,35,36,34,35,34,35,36,35,29,29,29,29,29,29,36,29,29,
34,35,36,36,34,34,34,34,34,34,34,34,36,36,35,29,35,29,34,35,35,34,35,36,35,34,35,36,34,34,34,34,35,36,34,35,36,34,34,34,35,36,34,35,36,34,35,34,35,36,29,29,29,34,29,29,29,36,29,29,
8,8,8,9,36,34,34,34,34,34,34,34,36,35,36,36,35,35,35,36,36,34,35,36,36,34,35,34,34,35,34,34,35,36,34,35,36,35,34,34,35,36,34,35,36,34,35,34,35,29,29,29,29,29,29,29,29,29,35,36,
18,18,18,5,8,9,36,36,36,34,34,36,35,36,36,35,35,35,35,34,36,34,35,36,34,35,34,35,36,36,34,34,35,36,34,35,36,34,34,35,34,35,34,35,36,34,34,34,35,29,29,29,29,29,29,29,29,29,29,36,
3,18,18,18,18,5,9,36,36,36,36,36,36,34,35,36,35,35,35,35,34,36,34,35,34,35,36,36,34,35,34,35,36,35,34,35,34,35,36,34,35,36,34,34,35,36,34,34,29,29,29,29,29,29,29,29,29,29,29,35,
13,3,18,18,18,18,5,8,8,9,36,36,36,7,8,8,8,8,9,29,34,35,35,35,34,35,36,34,34,35,36,36,36,34,34,34,34,34,34,35,36,36,34,34,35,36,34,29,29,29,34,29,29,29,29,29,29,29,29,29,
35,13,14,14,14,3,18,18,18,5,8,8,8,6,18,18,18,18,12,29,36,35,35,34,35,36,34,35,34,34,35,34,34,34,34,34,35,36,35,36,34,35,36,34,34,34,35,34,29,29,29,29,29,29,29,29,29,29,29,29,
35,35,35,35,35,13,14,14,3,18,18,18,18,18,18,18,18,18,5,9,29,34,34,34,35,36,34,34,34,35,34,35,36,34,34,35,36,36,36,36,34,35,36,34,35,34,34,29,29,29,29,29,29,29,29,29,29,29,29,29,
35,35,35,35,34,34,36,36,13,14,14,14,14,14,14,14,3,18,18,12,29,34,34,34,34,34,34,34,35,36,36,34,34,34,35,36,35,36,36,36,34,35,36,35,36,34,35,29,29,29,34,29,29,29,29,29,29,29,34,29,
34,35,34,35,35,36,36,36,36,35,35,36,34,34,36,36,13,3,18,5,9,34,35,34,34,34,34,34,35,36,34,34,35,34,35,34,35,36,35,34,35,36,35,36,34,34,35,29,36,29,35,29,29,29,29,29,29,36,34,35,
35,34,34,34,35,36,36,35,35,35,35,36,34,36,36,29,29,13,3,18,3758096392,29,35,34,34,34,35,34,35,36,34,34,35,34,35,34,34,34,34,35,36,35,36,35,34,35,36,35,29,29,36,29,29,35,29,29,29,35,36,34,
34,35,36,34,34,36,36,36,36,35,36,36,36,36,35,36,29,29,10,18,3758096392,29,35,36,34,34,29,34,35,36,34,34,35,36,34,34,35,34,34,35,36,36,34,34,35,36,34,35,29,29,29,34,29,36,29,29,29,35,36,35,
35,36,34,35,36,34,34,35,36,36,35,36,34,35,36,34,35,29,10,18,3758096392,29,35,36,29,29,29,34,35,36,34,34,35,36,34,34,34,34,35,34,34,34,35,36,34,34,35,36,29,29,29,35,36,34,34,29,29,35,36,35,
35,36,34,35,36,36,34,35,36,35,34,34,34,35,34,35,36,29,13,14,15,36,36,36,29,29,3221225507,36,36,36,36,36,36,36,36,36,36,35,34,35,34,35,35,35,35,35,34,35,29,36,29,36,34,34,34,34,35,36,36,35,
35,36,34,35,36,36,36,35,36,34,35,34,34,35,34,34,35,29,36,36,36,36,36,36,29,29,29,35,35,35,36,36,36,35,35,29,35,35,35,34,35,34,34,34,35,35,35,34,35,29,29,36,36,34,34,34,34,35,36,36,
34,35,34,35,36,35,36,35,36,35,36,34,34,34,34,34,34,29,36,36,36,36,36,35,35,35,29,36,36,36,35,35,35,35,35,29,29,34,34,35,34,35,35,35,34,34,34,35,34,29,29,35,36,36,36,36,36,36,34,35,
34,34,35,36,34,35,36,36,34,35,36,34,34,34,34,35,34,29,36,36,36,36,36,35,35,35,29,35,35,35,36,35,35,34,29,29,29,36,36,36,36,36,34,34,35,35,35,34,34,34,35,36,36,36,36,36,36,34,35,36,
35,34,34,35,36,34,35,36,34,35,36,34,35,34,34,35,36,29,35,36,35,35,35,34,34,34,34,35,35,35,35,36,34,29,29,29,29,36,36,36,36,7,8,8,9,36,34,34,34,34,34,34,34,36,36,34,35,36,34,35,
34,35,36,34,34,34,35,36,34,35,36,34,35,34,35,34,29,29,29,29,35,35,35,34,34,34,34,34,34,34,35,35,36,36,29,29,29,35,35,35,35,10,18,18,5,8,9,36,36,36,34,34,36,35,36,34,35,35,35,35,
34,35,36,35,34,34,35,36,34,35,36,34,35,34,34,29,29,29,29,29,29,34,34,35,35,35,29,34,36,36,36,36,36,36,36,35,29,29,29,35,35,10,18,18,18,18,5,9,36,36,36,36,36,36,34,35,36,35,35,35,
34,35,36,34,34,35,34,35,34,35,36,34,34,34,35,34,29,29,29,29,29,35,35,35,35,35,29,29,36,36,36,36,36,35,35,35,35,29,29,29,34,13,3,18,18,18,18,5,8,8,9,36,36,36,7,8,8,8,8,9,
34,35,34,35,36,34,35,36,34,34,35,36,34,34,35,36,29,29,29,29,29,35,34,34,34,29,29,29,35,36,36,36,35,35,35,35,29,29,34,29,34,34,13,14,14,14,3,18,18,18,5,8,8,8,6,18,18,18,18,12,
34,34,34,34,34,35,36,36,34,34,35,36,34,34,35,36,34,34,35,34,35,36,35,36,36,29,29,34,35,35,35,35,35,35,34,34,29,29,29,29,29,35,35,35,35,35,13,14,14,3,18,18,18,18,18,18,18,18,18,5,
34,34,35,36,35,36,34,35,36,34,34,34,35,34,35,34,35,36,34,35,34,35,36,35,35,35,29,34,35,35,35,35,35,34,34,29,29,29,29,36,29,35,35,35,35,34,34,36,36,13,14,14,14,14,14,14,14,3,18,18,
34,35,36,36,36,36,34,35,36,34,35,34,34,34,34,34,34,34,34,34,34,35,36,35,35,35,35,35,34,35,34,34,35,34,35,29,29,29,36,34,34,34,36,35,34,35,36,36,34,35,36,34,35,34,34,36,36,13,3,18,
35,36,35,36,36,36,34,35,36,35,36,34,35,36,36,34,34,36,36,36,36,34,34,34,34,34,35,35,35,34,35,35,34,34,34,29,34,29,29,34,34,34,36,35,36,36,34,34,35,34,35,36,34,34,36,36,29,29,13,3,
35,34,35,36,35,34,35,36,35,36,34,34,35,36,36,34,35,35,36,36,36,36,34,35,35,35,34,34,34,35,34,34,35,35,35,35,35,35,29,35,35,35,35,36,36,35,36,34,35,34,34,35,36,36,36,35,36,29,29,10
</data>
 </layer>
 <layer id="2" name="Tile Layer 2" width="60" height="34">
  <data encoding="csv">
0,0,0,0,0,109,110,111,109,110,111,0,0,103,104,105,115,116,117,0,103,104,105,0,0,0,0,0,0,0,0,0,0,0,0,0,0,0,0,0,64,76,77,77,77,77,77,78,66,0,0,0,0,0,0,0,0,0,0,0,
0,0,0,0,0,115,116,117,115,116,117,0,0,109,110,111,0,0,0,0,109,110,111,0,0,0,0,0,0,103,104,105,0,0,0,0,0,0,0,0,73,85,86,86,86,95,95,96,75,0,0,0,0,0,0,0,0,0,0,0,
0,0,64,76,77,77,77,77,77,78,66,0,0,115,116,117,0,0,0,0,115,116,117,0,0,0,0,0,0,109,110,111,0,0,0,0,0,0,0,0,82,83,83,83,91,85,86,87,75,0,0,0,0,0,0,0,0,0,0,0,
101,0,73,85,86,86,86,95,95,96,75,103,104,105,0,103,104,105,0,0,0,0,0,0,0,0,0,0,0,115,116,117,0,0,0,0,0,0,0,0,37,38,38,38,82,83,83,83,84,0,0,0,0,0,0,0,0,0,0,0,
0,0,82,83,83,83,91,85,86,87,75,109,110,111,0,109,110,111,0,103,104,105,0,0,0,0,0,0,0,0,0,0,0,103,104,105,0,0,0,0,46,47,47,47,37,38,38,38,39,0,0,0,0,0,0,0,0,0,0,0,
0,0,37,38,38,38,82,83,83,83,84,115,116,117,0,115,116,117,0,109,110,111,0,0,0,0,0,0,0,0,104,0,0,109,110,111,0,0,0,0,55,56,56,56,46,42,47,47,48,0,0,0,0,0,0,0,0,0,0,0,
0,0,46,47,47,47,37,38,38,38,39,0,0,0,0,0,0,104,0,115,116,117,103,104,105,0,0,0,0,0,104,0,0,115,116,117,0,0,0,0,34,35,36,35,55,51,56,56,57,0,0,0,0,0,0,0,0,0,0,0,
0,0,55,56,56,56,46,42,47,47,48,0,103,104,105,0,103,104,105,0,0,0,109,110,111,0,0,0,0,103,104,105,0,0,0,0,0,104,0,0,0,0,0,0,0,118,0,0,0,0,0,0,0,0,0,103,104,105,0,0,
0,0,34,35,36,35,55,51,56,56,57,0,109,110,111,0,109,110,111,0,0,0,115,116,117,0,0,0,0,109,110,111,0,103,104,105,0,104,0,0,0,0,0,0,0,121,0,0,0,0,0,0,0,0,0,109,110,111,0,0,
0,0,0,0,0,0,0,118,0,0,0,0,115,116,117,0,115,116,117,0,0,0,0,0,0,0,103,104,105,115,116,117,0,109,110,111,103,104,105,0,2147483753,2147483752,2147483751,0,118,118,0,103,104,105,0,0,0,0,0,115,116,117,0,0,
0,0,0,0,0,0,0,118,118,118,0,0,0,0,0,118,118,118,118,118,118,118,118,104,118,118,109,110,111,0,0,0,0,115,116,117,109,110,111,0,2147483759,2147483758,2147483757,0,0,0,0,109,110,111,0,0,0,0,0,0,0,0,0,0,
0,0,0,0,0,0,0,0,0,118,118,118,118,118,118,0,0,0,0,0,0,0,0,104,0,118,118,118,118,118,118,0,0,0,0,0,115,116,117,0,2147483765,2147483764,2147483763,118,0,0,0,115,116,117,0,0,0,0,0,103,104,105,0,0,
0,0,0,0,0,0,0,0,0,0,0,0,0,0,0,0,0,0,103,104,105,0,103,104,105,0,0,0,0,0,104,118,118,118,118,118,118,118,118,118,118,0,118,0,0,0,0,0,0,0,0,0,0,0,0,109,110,111,0,0,
0,0,0,0,0,0,0,0,0,0,0,0,0,0,0,0,0,0,109,110,111,0,109,110,111,0,103,104,105,0,104,0,0,0,0,0,2147483759,2147483758,2147483757,0,0,2147483752,0,0,0,0,0,103,104,105,0,0,103,104,105,115,116,117,0,0,
0,0,0,0,0,0,104,0,0,0,0,0,0,0,0,0,0,0,115,116,117,0,115,116,117,0,109,110,111,103,104,105,0,0,0,0,2147483765,2147483764,2147483763,0,0,2147483752,0,0,0,0,0,109,110,111,0,0,109,110,111,0,0,0,0,0,
0,0,0,0,0,103,104,105,0,0,0,0,0,0,0,0,0,0,0,0,0,0,0,0,141,0,115,116,117,109,110,111,0,0,2147483752,0,0,0,0,0,2147483753,2147483752,2147483751,0,0,0,0,115,116,117,0,0,115,116,117,0,0,0,0,0,
0,0,0,0,0,109,110,111,0,0,118,0,0,0,0,0,0,104,0,0,0,0,0,0,147,0,0,0,0,115,116,117,0,0,2147483752,0,2147483753,2147483752,2147483751,0,2147483759,2147483758,2147483757,0,0,0,0,0,0,0,0,0,0,0,0,0,0,0,0,0,
0,103,104,105,0,115,116,0,118,118,118,0,103,104,105,0,103,104,105,0,12,0,103,104,153,0,0,0,0,0,0,0,0,2147483753,2147483752,2147483751,2147483759,2147483758,2147483757,0,2147483765,103,104,105,0,0,0,0,0,0,0,0,103,104,105,0,103,104,105,0,
0,109,110,111,0,0,0,0,118,0,0,0,109,110,111,0,109,110,111,0,12,0,109,110,111,0,0,0,103,104,105,0,0,2147483759,2147483758,2147483757,2147483765,2147483764,2147483763,0,0,109,110,111,0,103,104,105,0,0,0,0,109,110,111,0,109,110,111,0,
0,115,116,117,0,0,0,118,118,0,0,0,115,116,117,0,115,116,117,0,12,0,115,116,103,104,105,29,109,110,111,0,0,2147483765,2147483764,2147483763,0,0,0,0,0,115,116,117,0,109,110,111,0,0,0,0,115,116,117,0,115,116,117,0,
0,0,0,0,0,0,0,0,0,0,0,0,0,0,0,0,0,29,0,0,0,0,0,0,109,110,111,29,115,116,117,0,0,0,0,0,0,0,0,0,0,0,0,0,0,115,116,117,0,0,0,0,0,0,0,0,0,0,0,0,
0,0,0,0,0,0,0,0,0,0,0,0,0,34,35,103,104,105,36,36,0,103,104,105,115,116,117,29,0,0,0,0,29,0,0,0,0,0,0,103,104,105,0,0,0,0,0,0,0,0,0,0,0,0,0,0,103,104,105,0,
0,0,0,0,0,0,0,0,103,104,105,0,0,34,35,109,110,111,36,36,0,109,110,111,0,0,0,0,103,104,105,0,29,29,29,29,0,0,0,109,110,111,0,0,0,103,104,105,0,0,0,0,103,104,105,0,109,110,111,0,
103,104,105,0,0,0,0,0,109,110,111,0,103,104,34,115,116,117,36,0,0,115,116,117,0,0,0,0,109,110,111,0,29,103,104,105,0,0,0,115,116,117,0,0,0,109,110,111,0,0,0,0,109,110,111,0,115,116,117,0,
109,110,111,0,0,0,0,0,115,116,117,0,109,110,34,34,34,35,36,0,0,0,0,0,0,0,0,0,115,116,117,0,29,109,110,111,29,0,0,0,0,0,0,0,0,115,116,117,0,0,0,0,115,116,117,103,104,105,0,0,
115,116,117,0,0,0,0,0,0,0,0,0,115,116,34,34,34,35,36,103,104,105,0,0,103,104,105,0,0,0,0,0,29,115,116,117,29,0,0,0,0,0,0,0,0,0,0,0,0,0,0,0,0,0,0,109,110,111,0,0,
0,0,0,0,0,0,0,0,0,0,0,0,0,0,0,103,104,105,36,109,110,111,0,0,109,110,111,0,0,0,0,0,0,0,0,0,0,0,0,0,0,0,0,0,0,0,0,0,0,0,0,0,0,0,0,115,116,117,0,0,
104,105,0,0,0,0,0,0,0,103,104,105,0,0,0,109,110,111,36,115,116,117,0,0,115,116,117,0,0,0,0,0,0,0,0,0,103,104,105,0,0,0,0,0,0,0,0,0,0,0,0,0,0,0,0,0,0,0,0,0,
110,111,0,0,0,0,0,0,0,109,110,111,0,0,0,115,116,117,0,0,0,0,0,0,0,0,0,0,0,0,0,0,0,0,0,0,109,110,111,29,29,0,0,0,0,0,0,0,0,0,0,0,0,0,0,0,0,0,0,0,
116,117,0,0,0,0,0,0,0,115,116,117,0,0,0,0,0,0,0,0,0,103,104,105,0,0,0,0,0,103,104,105,0,0,0,29,115,116,117,29,0,0,0,0,0,0,0,0,0,0,0,0,0,0,0,0,0,0,0,0,
0,0,0,0,0,0,0,0,0,0,0,0,0,0,0,0,0,0,0,0,0,109,110,111,103,104,105,0,0,109,110,111,0,0,0,29,29,29,29,29,29,0,0,0,0,0,0,0,0,0,0,0,0,0,0,0,0,0,0,0,
0,103,104,105,0,0,0,0,0,0,0,0,0,0,0,0,103,104,105,0,0,115,116,117,109,110,111,0,0,115,116,117,0,0,0,0,0,0,0,0,103,104,105,0,0,0,0,0,0,0,0,0,0,0,0,0,0,0,0,0,
0,109,110,111,0,0,0,0,0,0,0,0,0,0,0,0,109,110,111,0,0,0,0,0,115,116,117,0,0,0,0,0,0,0,0,0,0,0,0,0,109,110,111,0,0,0,0,0,0,0,0,0,0,0,0,0,0,0,0,0,
0,115,116,117,0,0,0,0,0,0,0,0,0,0,0,0,115,116,117,0,0,0,0,0,0,0,0,0,0,0,0,0,0,0,0,0,0,0,0,0,115,116,117,0,0,0,0,0,0,0,0,0,0,0,0,0,0,0,0,0
</data>
 </layer>
 <layer id="3" name="Tile Layer 3" width="60" height="34">
  <data encoding="csv">
0,103,104,105,0,0,0,0,0,0,0,0,0,169,170,171,0,0,0,0,151,152,153,0,0,0,0,0,0,163,164,165,0,0,0,0,0,0,0,0,116,117,0,0,0,0,43,0,0,0,0,0,0,0,0,0,0,0,0,0,
137,138,110,111,0,0,0,0,0,0,0,139,140,141,176,139,140,141,0,0,0,0,0,0,0,0,0,0,0,169,170,171,0,0,0,0,0,0,0,0,0,0,0,0,0,0,52,0,0,0,0,0,0,2147483652,0,0,0,1,0,0,
143,144,116,117,0,0,0,0,43,0,0,145,146,147,0,145,146,147,0,139,140,141,0,0,0,0,0,0,0,175,176,177,0,139,140,141,0,0,0,0,0,0,0,0,0,0,0,0,0,0,7,8,9,0,0,0,0,0,0,0,
149,150,0,0,0,0,0,0,52,0,0,151,152,153,0,151,152,153,0,145,146,147,0,0,0,0,0,0,0,139,140,141,0,145,146,147,0,0,0,0,0,0,59,0,0,0,0,0,0,0,10,11,12,0,0,0,1,0,3758096388,0,
110,111,0,0,0,0,0,0,0,0,0,0,0,0,0,0,139,140,141,151,152,153,157,158,159,0,0,0,0,145,146,147,0,151,152,153,0,0,0,0,0,0,44,0,0,2147483706,0,58,0,0,13,14,15,2147483805,0,0,0,0,0,0,
116,117,0,0,59,0,0,0,0,0,0,0,139,140,141,0,145,146,147,0,0,0,163,164,165,0,0,0,0,151,152,153,0,0,0,0,139,140,141,0,0,0,3221225530,0,0,0,0,44,0,0,0,0,0,0,0,157,158,159,0,0,
0,0,0,0,44,0,0,2147483706,0,58,0,0,145,146,147,0,151,152,153,0,0,0,169,170,171,0,0,0,0,0,0,0,0,157,158,159,145,146,147,0,0,0,0,0,0,41,0,3221225530,0,0,0,0,0,0,0,163,164,165,0,0,
0,0,0,0,3221225530,0,0,0,0,44,0,0,151,152,153,0,0,0,0,0,0,0,175,176,177,0,139,140,141,0,0,0,0,163,164,165,151,152,153,0,2147483807,2147483806,2147483805,0,0,0,0,157,158,159,0,0,0,0,0,169,170,171,0,0,
0,0,0,0,0,0,0,41,0,3221225530,0,0,0,0,0,0,0,0,0,0,0,0,139,140,141,0,145,146,147,0,0,0,0,169,170,171,0,0,0,0,2147483813,2147483812,2147483811,0,0,0,0,163,164,165,0,0,0,0,0,175,176,177,0,0,
0,0,0,0,0,0,0,0,0,0,0,0,0,0,0,0,0,0,0,0,0,0,145,146,147,0,151,152,153,0,0,0,0,175,176,177,0,0,0,0,2147483819,2147483818,2147483817,0,0,0,0,169,170,171,0,0,0,0,0,139,140,141,0,0,
0,0,0,0,0,0,0,0,0,0,0,0,0,0,0,0,0,0,136,137,138,0,151,152,153,0,0,0,0,139,140,141,0,0,0,0,2147483789,2147483788,2147483787,0,2147483825,2147483824,2147483823,0,0,0,0,175,176,177,0,0,0,0,0,145,146,147,0,0,
0,0,0,0,0,0,0,0,0,0,0,0,0,0,0,0,0,0,142,143,144,0,0,0,0,0,157,158,159,145,146,147,0,0,0,0,2147483795,2147483794,2147483793,0,2147483789,2147483788,2147483787,0,0,0,0,139,140,141,0,0,157,158,159,151,152,153,0,0,
0,0,0,0,0,139,140,141,0,0,192,0,0,0,0,0,0,0,148,149,150,0,0,0,0,0,163,164,165,151,152,153,0,0,0,0,2147483801,2147483800,2147483799,0,2147483795,2147483794,2147483793,0,0,0,0,145,146,147,0,0,163,164,165,0,0,0,0,0,
0,0,0,0,0,145,146,147,0,0,198,0,0,0,0,0,0,0,0,0,0,0,0,0,0,0,169,170,171,0,0,0,0,2147483789,2147483788,2147483787,0,0,0,0,2147483801,2147483800,2147483799,0,0,0,0,151,152,153,0,0,169,170,171,0,0,0,0,0,
0,0,0,0,0,151,152,153,0,0,198,0,0,0,0,0,139,140,141,0,0,0,0,0,0,0,175,176,177,0,0,0,0,2147483795,2147483794,2147483793,2147483807,2147483806,2147483805,0,0,0,0,0,0,0,0,0,0,0,0,0,175,176,177,0,0,0,0,0,
0,139,140,141,0,0,0,0,0,0,204,0,139,140,141,0,145,146,147,0,0,0,139,140,141,0,0,0,0,0,0,0,0,2147483801,2147483800,2147483799,2147483813,2147483812,2147483811,0,0,157,158,159,0,0,0,0,0,0,0,0,139,140,141,0,157,158,159,0,
0,145,146,147,0,0,0,0,0,0,0,0,145,146,147,0,151,152,153,0,0,0,145,146,147,0,0,0,157,158,159,0,0,0,0,0,2147483819,2147483818,2147483817,0,0,163,164,165,0,157,158,159,0,0,0,0,145,146,147,0,163,164,165,0,
0,151,152,153,0,0,0,0,0,0,0,0,151,152,153,0,0,0,0,0,0,0,151,152,154,155,156,0,163,164,165,0,0,0,0,0,2147483825,2147483824,2147483823,0,0,169,170,171,0,163,164,165,0,0,0,0,151,152,153,0,169,170,171,0,
0,0,0,0,0,0,0,0,0,0,0,0,0,0,0,0,0,0,0,0,0,0,0,0,160,161,162,0,169,170,171,0,0,0,0,0,0,0,0,0,0,175,176,177,0,169,170,171,0,0,0,0,0,0,0,0,175,176,177,0,
0,0,0,0,0,0,0,0,0,0,0,0,0,0,0,157,158,159,0,0,0,154,155,156,166,167,168,0,175,176,177,0,0,0,0,0,0,0,0,139,140,141,0,0,0,175,176,177,0,0,0,0,0,0,0,0,139,140,141,0,
0,0,0,0,0,0,118,0,157,158,159,0,0,0,0,163,164,165,0,0,0,160,161,162,0,0,0,0,139,140,141,0,0,0,0,0,0,0,0,145,146,147,0,0,0,139,140,141,0,0,0,0,139,140,141,0,145,146,147,0,
139,140,141,0,0,0,118,0,163,164,165,0,139,140,141,169,170,171,0,0,0,166,167,168,0,0,0,0,145,146,147,0,0,154,155,156,0,0,0,151,152,153,0,0,0,145,146,147,0,0,0,0,145,146,147,0,151,152,153,0,
145,146,147,0,0,0,118,0,169,170,171,0,145,146,147,175,176,177,0,0,0,0,0,0,0,0,0,0,151,152,153,0,0,160,161,162,0,0,0,0,0,0,0,0,0,151,152,153,0,0,0,0,151,152,153,139,140,141,0,0,
151,152,153,0,0,118,118,0,175,176,177,0,151,152,153,0,0,0,0,154,155,156,0,0,154,155,156,0,0,0,0,0,0,166,167,168,0,0,0,0,0,0,0,0,0,0,0,0,0,0,0,0,0,0,0,145,146,147,0,0,
0,0,0,0,0,118,0,0,0,0,0,0,0,0,0,157,158,159,0,160,161,162,0,0,160,161,162,0,0,0,0,0,0,0,0,0,0,0,0,0,0,0,0,0,0,0,0,0,0,0,0,0,0,0,0,151,152,153,0,0,
158,159,0,0,118,118,0,0,0,157,158,159,0,0,0,163,164,165,0,166,167,168,0,0,166,167,168,0,0,0,0,0,0,0,0,0,139,140,141,0,0,0,0,0,0,0,0,0,0,0,0,0,0,0,0,0,0,0,0,0,
164,165,0,0,118,0,0,0,0,163,164,165,0,0,0,169,170,171,0,0,0,0,0,0,0,0,0,0,0,0,0,0,0,0,0,0,145,146,147,0,0,0,0,0,0,0,0,0,0,0,0,0,0,0,0,0,0,0,0,0,
170,171,0,0,118,0,0,0,0,169,170,171,0,0,0,175,176,177,0,0,0,157,158,159,0,0,0,0,0,139,140,141,0,0,0,0,151,152,153,0,0,0,0,0,0,0,0,0,0,0,0,0,0,0,0,0,0,0,0,0,
176,177,0,0,118,0,0,0,0,175,176,177,0,0,0,0,0,0,0,0,0,163,164,165,139,140,141,0,0,145,146,147,0,0,0,0,0,0,0,0,0,0,0,0,0,0,0,0,0,0,0,0,0,0,0,0,0,0,0,0,
0,157,158,159,118,118,0,0,0,0,0,0,0,0,0,0,139,140,141,0,0,169,170,171,145,146,147,0,0,151,152,153,0,0,0,0,0,0,0,0,139,140,141,0,0,0,0,0,0,0,0,0,0,0,0,0,0,0,0,0,
0,163,164,165,0,118,118,0,0,0,0,0,0,0,0,0,145,146,147,0,0,175,176,177,151,152,153,0,0,0,0,0,0,0,0,0,0,0,0,0,145,146,147,0,0,0,0,0,0,0,0,0,0,0,0,0,0,0,0,0,
0,169,170,171,0,0,118,118,118,0,0,0,0,0,0,0,151,152,153,0,0,0,0,0,0,0,0,0,0,0,0,0,0,0,0,0,0,0,0,0,151,152,153,0,0,0,0,0,0,0,0,0,0,0,0,0,0,0,0,0,
0,175,176,177,0,0,0,0,0,118,118,0,0,0,0,0,0,0,0,0,0,0,0,0,0,0,0,0,0,0,0,0,0,0,0,0,0,0,0,0,0,0,0,0,0,0,0,0,0,0,0,0,0,0,0,0,0,0,0,0,
0,0,0,0,0,0,0,0,0,0,0,118,118,0,0,0,0,0,0,0,0,0,0,0,0,0,0,0,0,0,0,0,0,0,0,0,0,0,0,0,0,0,0,0,0,0,0,0,0,0,0,0,0,0,0,0,0,0,0,0
</data>
 </layer>
</map>
